src/Pure/16/symbolic/actions/media-view-subtitles-symbolic.svg

<?xml version="1.0" encoding="UTF-8" standalone="no"?>
<svg
   width="16"
   height="16"
   version="1.1"
   id="svg2"
   sodipodi:docname="media-view-subtitles-symbolic.svg"
   inkscape:version="1.4.2 (ebf0e940d0, 2025-05-08)"
   xmlns:inkscape="http://www.inkscape.org/namespaces/inkscape"
   xmlns:sodipodi="http://sodipodi.sourceforge.net/DTD/sodipodi-0.dtd"
   xmlns="http://www.w3.org/2000/svg"
   xmlns:svg="http://www.w3.org/2000/svg">
  <defs
     id="defs2">
     <style
        id="current-color-scheme"
        type="text/css">
        .ColorScheme-Text { color:#363636; }
     </style>
  </defs>
  <sodipodi:namedview
     id="namedview2"
     pagecolor="#ffffff"
     bordercolor="#000000"
     borderopacity="0.25"
     inkscape:showpageshadow="2"
     inkscape:pageopacity="0.0"
     inkscape:pagecheckerboard="0"
     inkscape:deskcolor="#d1d1d1"
     inkscape:zoom="49.6875"
     inkscape:cx="8"
     inkscape:cy="8"
     inkscape:window-width="1920"
     inkscape:window-height="1010"
     inkscape:window-x="0"
     inkscape:window-y="0"
     inkscape:window-maximized="1"
     inkscape:current-layer="svg2" />
  <path
     id="path1"
     style="fill:currentColor"
     class="ColorScheme-Text"
     d="M 2.5 3 A 2.495 2.495 0 0 0 0 5.5 L 0 10.5 C 0 11.885 1.115 13 2.5 13 L 9.5625 13 C 10.9475 13 12.0425 11.885 12.0625 10.5 L 12.0625 8.125 L 16 5 L 12 5 A 2.486 2.486 0 0 0 9.5625 3 L 2.5 3 z M 2.3242188 4 L 9.6757812 4 C 10.409051 4 11 4.5909688 11 5.3242188 L 11 10.675781 C 11 11.409051 10.409031 12 9.6757812 12 L 2.3242188 12 C 1.5909488 12 1 11.409031 1 10.675781 L 1 5.3242188 C 1 4.5909487 1.5909688 4 2.3242188 4 z M 2.5 8 C 2.223 8 2 8.223 2 8.5 C 2 8.777 2.223 9 2.5 9 L 9.5 9 C 9.777 9 10 8.777 10 8.5 C 10 8.223 9.777 8 9.5 8 L 2.5 8 z M 2.5 10 C 2.223 10 2 10.223 2 10.5 C 2 10.777 2.223 11 2.5 11 L 6.5 11 C 6.777 11 7 10.777 7 10.5 C 7 10.223 6.777 10 6.5 10 L 2.5 10 z " />
</svg>

<svg width="16" height="16" version="1.1" xmlns="http://www.w3.org/2000/svg">
 <g transform="translate(-733 -97)">
  <path transform="translate(733,97)" d="m2.5 3a2.495 2.495 0 0 0-2.5 2.5v5c0 1.385 1.115 2.5 2.5 2.5h7.0625c1.385 0 2.48-1.115 2.5-2.5v-2.375l3.9375-3.125h-4a2.486 2.486 0 0 0-2.4375-2h-7.0625zm-0.17578 1h7.3516c0.73327 0 1.3242 0.59095 1.3242 1.3242v5.3516c0 0.73327-0.59095 1.3242-1.3242 1.3242h-7.3516c-0.73327 0-1.3242-0.59095-1.3242-1.3242v-5.3516c0-0.73327 0.59095-1.3242 1.3242-1.3242z" fill="#363636"/>
 </g>
 <rect x="2" y="8" width="8" height="1" ry=".5" fill="#363636"/>
 <rect x="2" y="10" width="5" height="1" ry=".5" fill="#363636"/>
</svg>
